X: 970
T: The Barony jig
C: anon.
O: Ireland
B: Francis O'Neill: "The Dance Music of Ireland" (1907) no. 970
R: Long dance, set dance, slip jig
Z: Transcribed by Frank Nordberg - http://www.musicaviva.com
F: http://www.musicaviva.com/abc/tunes/ireland/oneill-1001/oneill-1001-097
0.abc
M: 9/8
L: 1/8
K: Am
B|c2A c2A- AGE|c2A ABd (e2d)|c2A c2A- AGE|GED DEG A2B|c2A c2A- AGE|c2A AB
d (e2d)|c2A efd cBA|GED DEG A2:|
|:B|c2d ecA AGE|c2e (e/f/e)d e2d|c2d ecA AGE|GED DEG A2B|c2d ecA AGE|c2d
(e/f/e)d e2d|cde ge(d e)cA|GED DEG A2:|
W:
W:
W: From Musica Viva - http://www.musicaviva.com
W: the Internet center for free sheet music downloads.


